X:1
T: Loch Avon
C:Alexander Walker
R:Reel
Q: 232
K:F
M:4/4
L:1/8
|:A|F2 AF cF Af|F2 AF B_E GE|F2 AF cF AF|fa ga fd df|
F2 AF cF Af|F2 AF B_E GE|F2 AF cF AF|bg af g2 ga|
fc df cA FC|B,D A,F GG, G,g|fc df cf Af|cc' af g2 ga|
fc df cA FC|B,G A,F GG, G,F|A,C AF Bc de|fc dB AF F:|
